src/com/lilithsthrone/res/perks/misc_observant.svg

<?xml version="1.0" encoding="UTF-8" standalone="no"?>
<!-- Created with Inkscape (http://www.inkscape.org/) -->

<svg
   xmlns:dc="http://purl.org/dc/elements/1.1/"
   xmlns:cc="http://creativecommons.org/ns#"
   xmlns:rdf="http://www.w3.org/1999/02/22-rdf-syntax-ns#"
   xmlns:svg="http://www.w3.org/2000/svg"
   xmlns="http://www.w3.org/2000/svg"
   xmlns:sodipodi="http://sodipodi.sourceforge.net/DTD/sodipodi-0.dtd"
   xmlns:inkscape="http://www.inkscape.org/namespaces/inkscape"
   width="100%"
   height="100%"
   viewBox="0 0 64.000001 64.000001"
   id="svg4311"
   version="1.1"
   inkscape:version="0.91 r13725"
   sodipodi:docname="misc_observant.svg">
  <defs
     id="defs4313">
    <inkscape:path-effect
       effect="powerstroke"
       id="path-effect4183"
       is_visible="true"
       offset_points="0.238227,0.51804536"
       sort_points="true"
       interpolator_type="Linear"
       interpolator_beta="0.2"
       start_linecap_type="zerowidth"
       linejoin_type="round"
       miter_limit="4"
       end_linecap_type="zerowidth"
       cusp_linecap_type="round" />
  </defs>
  <sodipodi:namedview
     id="base"
     pagecolor="#ffffff"
     bordercolor="#666666"
     borderopacity="1.0"
     inkscape:pageopacity="0.0"
     inkscape:pageshadow="2"
     inkscape:zoom="5.6"
     inkscape:cx="33.576134"
     inkscape:cy="80.098592"
     inkscape:document-units="px"
     inkscape:current-layer="layer5"
     showgrid="false"
     units="px"
     inkscape:window-width="2560"
     inkscape:window-height="1388"
     inkscape:window-x="-8"
     inkscape:window-y="-8"
     inkscape:window-maximized="1" />
  <metadata
     id="metadata4316">
    <rdf:RDF>
      <cc:Work
         rdf:about="">
        <dc:format>image/svg+xml</dc:format>
        <dc:type
           rdf:resource="http://purl.org/dc/dcmitype/StillImage" />
        <dc:title />
      </cc:Work>
    </rdf:RDF>
  </metadata>
  <g
     inkscape:groupmode="layer"
     id="layer5"
     inkscape:label="Stage5"
     style="display:inline">
    <ellipse
       style="opacity:1;fill:#ececec;fill-opacity:1;stroke:#ececec;stroke-width:1;stroke-linecap:round;stroke-linejoin:round;stroke-miterlimit:4;stroke-dasharray:none;stroke-dashoffset:0;stroke-opacity:1"
       id="path4144"
       cx="32.782608"
       cy="38.06749"
       rx="4.2142301"
       ry="4.0563936" />
    <path
       style="fill:#6f7c91;fill-rule:evenodd;stroke:#000000;stroke-width:0.4864558;stroke-linecap:butt;stroke-linejoin:miter;stroke-miterlimit:4;stroke-dasharray:none;stroke-opacity:1"
       d="M 48.027344,19.966797 C 44.012453,20.007147 39.500485,21.682381 36.783203,25.625 35.298247,24.160024 30.950747,23.274161 28.357422,25.753906 27.554313,22.791136 17.556232,16.551582 10.072266,22.453125 6.0037736,28.878688 2.2285431,35.457642 2.5136719,39.914062 3.5209813,55.657804 26.487603,56.042012 28.357422,41 c 2.708679,3.725307 6.468279,3.4072 8.6875,0.173828 C 43.274266,58.47118 62.49099,51.370582 62.712891,40.261719 62.835177,34.139844 59.542217,29.444543 55.416016,22.541016 53.97159,20.893027 51.150037,19.935414 48.027344,19.966797 Z M 30.097968,37.049628 c -0.0045,0.900292 0.140081,2.064977 0.778874,2.768282 l 1.941917,-1.901844 1.966709,1.77422 c 0.50484,-0.57594 0.61987,-1.54277 0.488178,-2.581349 l 1.440525,0.04034 c 0.147111,1.884831 -0.09305,3.439714 -1.937944,4.907917 l -1.928888,-2.044417 -1.821112,2.15742 C 29.308199,41.025123 28.51117,39.406287 28.568162,37.19766 Z"
       id="path4165"
       inkscape:connector-curvature="0"
       sodipodi:nodetypes="scccsccscsccccccccccc" />
    <path
       style="fill:#6f7c91;fill-rule:evenodd;stroke:#000000;stroke-width:0.4864558px;stroke-linecap:butt;stroke-linejoin:miter;stroke-opacity:1"
       d="m 12.329793,19.521948 c 3.564522,-2.435129 13.210497,-0.564047 14.55024,2.62773 0.06233,-2.579504 0.108586,-4.799407 0.108586,-4.799407 -1.901507,-3.108349 -6.564064,-5.004764 -11.466459,-1.997944 z"
       id="path4169"
       inkscape:connector-curvature="0"
       sodipodi:nodetypes="ccccc" />
    <path
       style="fill:#6f7c91;fill-rule:evenodd;stroke:#000000;stroke-width:0.4864558px;stroke-linecap:butt;stroke-linejoin:miter;stroke-opacity:1"
       d="m 38.085892,21.975944 0.184275,-4.560523 c 4.157377,-5.420699 9.872285,-3.952108 11.97712,-1.650475 l 2.128245,3.30095 c -7.02003,-2.358788 -11.979286,0.663096 -14.28964,2.910048 z"
       id="path4171"
       inkscape:connector-curvature="0"
       sodipodi:nodetypes="ccccc" />
    <ellipse
       style="fill:#dfeef2;fill-opacity:1;stroke:#000000;stroke-width:0.4864558;stroke-linecap:butt;stroke-linejoin:round;stroke-miterlimit:4;stroke-dasharray:none;stroke-dashoffset:0;stroke-opacity:1"
       id="path4148"
       cx="15.478724"
       cy="39.284214"
       rx="9.5770988"
       ry="9.359931" />
    <ellipse
       style="display:inline;fill:#dfeef2;fill-opacity:1;stroke:#000000;stroke-width:0.4864558;stroke-linecap:butt;stroke-linejoin:round;stroke-miterlimit:4;stroke-dasharray:none;stroke-dashoffset:0;stroke-opacity:1"
       id="path4148-0"
       cx="49.986687"
       cy="39.175632"
       rx="9.5770988"
       ry="9.359931" />
    <path
       style="fill:none;fill-rule:evenodd;stroke:#ffffff;stroke-width:1.94582319;stroke-linecap:round;stroke-linejoin:miter;stroke-miterlimit:4;stroke-dasharray:none;stroke-opacity:1"
       d="m 9.8975146,39.957435 c 0.4336364,3.146547 2.0453094,5.161078 5.4291944,5.472628"
       id="path4173"
       inkscape:connector-curvature="0"
       sodipodi:nodetypes="cc" />
    <path
       style="fill:none;fill-rule:evenodd;stroke:#ffffff;stroke-width:1.94582319;stroke-linecap:round;stroke-linejoin:miter;stroke-miterlimit:4;stroke-dasharray:none;stroke-opacity:1"
       d="m 44.340323,40.044302 c -0.366199,2.852511 2.919805,5.580093 5.342325,5.255461"
       id="path4175"
       inkscape:connector-curvature="0"
       sodipodi:nodetypes="cc" />
  </g>
</svg>

<svg xmlns="http://www.w3.org/2000/svg" viewBox="0 0 64 64">
    <ellipse cx="32.783" cy="38.067" fill="#ececec" stroke="#ececec" stroke-linecap="round" stroke-linejoin="round" rx="4.214" ry="4.056"/>
    <path fill="#6f7c91" fill-rule="evenodd" stroke="#000" stroke-width=".486" d="M48.027 19.967c-4.015.04-8.527 1.715-11.244 5.658-1.485-1.465-5.832-2.35-8.426.129-.803-2.963-10.8-9.202-18.285-3.3-4.068 6.425-7.843 13.004-7.558 17.46C3.52 55.658 26.488 56.042 28.357 41c2.71 3.725 6.469 3.407 8.688.174 6.23 17.297 25.446 10.197 25.668-.912.122-6.122-3.17-10.817-7.297-17.721-1.444-1.648-4.266-2.606-7.389-2.574zM30.098 37.05c-.005.9.14 2.065.779 2.768l1.942-1.902 1.966 1.774c.505-.576.62-1.542.489-2.581l1.44.04c.147 1.885-.093 3.44-1.938 4.908l-1.929-2.044-1.82 2.157c-1.719-1.145-2.516-2.764-2.459-4.972z"/>
    <path fill="#6f7c91" fill-rule="evenodd" stroke="#000" stroke-width=".486" d="M12.33 19.522c3.564-2.435 13.21-.564 14.55 2.628.062-2.58.109-4.8.109-4.8-1.902-3.108-6.564-5.004-11.467-1.998zM38.086 21.976l.184-4.56c4.158-5.421 9.872-3.953 11.977-1.651l2.129 3.3c-7.02-2.358-11.98.664-14.29 2.91z"/>
    <ellipse cx="15.479" cy="39.284" fill="#dfeef2" stroke="#000" stroke-linejoin="round" stroke-width=".486" rx="9.577" ry="9.36"/>
    <ellipse cx="49.987" cy="39.176" fill="#dfeef2" stroke="#000" stroke-linejoin="round" stroke-width=".486" rx="9.577" ry="9.36"/>
    <path fill="none" stroke="#fff" stroke-linecap="round" stroke-width="1.946" d="M9.898 39.957c.433 3.147 2.045 5.162 5.429 5.473M44.34 40.044c-.366 2.853 2.92 5.58 5.343 5.256"/>
</svg>
